X:1
T:Title
%%score ( 1 2 ) ( 3 4 )
L:1/8
Q:1/4=110
M:4/4
K:G
V:1 treble nm="Choir Aahs, Unnamed-000"
V:2 treble 
V:3 bass nm="Choir Aahs, Unnamed-001"
V:4 bass 
V:1
 [DG]2 [DF]2 [DG]2 [Dc]2 | [DB]2 [GB]2 [FA]2 z2 | [DB]2 [DE]2 [CE]2 [DF]2 | .G2 z2 z4 | %4
w: By~John~Bacchus~Dykes * * *||||
 [Fd]2 [Gd]2 [GB]2 [Gc]2 | [=Fd]2 e2- [Ge]2 [Gd]2 | [DB]2 [^DB]2 [DA]2 [EG]2 | [EA]2 [^DB]6 | %8
w: ||||
 [DB]2 [DB]2 [DB]2 [DA]2- | [DA][DG] [DF]2 G-[EG] [FA]2 | G2 [=FB]2 [Fd]2 [Ec]2 | %11
w: |||
 E-[CE] [B,G]4 A2- | [CA]2 [B,G]6 |] %13
w: ||
V:2
 x8 | x8 | x8 | D-[DA] [DG]6 | x8 | z2 E2 z4 | x8 | x8 | x8 | z4 .D2 z2 | x8 | .D2 z2 z2 D2 | x8 |] %13
V:3
 [G,B,]2 [A,C]2 [G,B,]2 [F,A,]2 | [G,B,]2 [D,D]2 [D,D]2 z2 | [B,,G,]2 [C,G,]2 [A,,A,]2 [D,A,]2 | %3
 B,C [G,B,]6 | [A,C]2 [G,B,]2 [=F,D]2 [E,G,]2 | [D,B,]2 C2- [E,C]2 [G,B,]2 | %6
 [G,B,]2 [B,,B,]2 [B,,B,]2 [E,B,]2 | A,E, [B,,F,]6 | [G,,B,]2 [G,B,]2 [G,B,]2 [F,C]2- | %9
 [F,C][G,B,] [D,A,]2 [D,B,]2 [D,C]2 | [G,B,]2 [G,D]2 [G,,B,]2 [C,G,]2 | [C,A,]2 B,2 G,2 [D,F,]2- | %12
 [D,F,]2 [G,,G,]6 |] %13
V:4
 x8 | x8 | x8 | D,2 z2 z4 | x8 | z2 C,2 z4 | x8 | C,2 z2 z4 | x8 | x8 | x8 | z2 D,4 z2 | x8 |] %13

